X: 15653
T: Going To The Well For Water
R: slide
M: 12/8
K: Dmajor
f3 fed|e3 edc|d3 dcB|c3 cBA|
GBB GBB FAA FAA|E3 e2d|cBc d3||
A2f A2f|A2f fed|B2g B2g|B2g gfe|
c2e A2e|c2e A2e|a3 gfe|fdB A3|
A2f A2f|A2f fed|B2g B2g|B2g gfe|
c2e A2e|c2e A2e|a3 gec|edc d3||

